crowdsource-fe/public/images/validate.svg

<svg width="130" height="130" viewBox="0 0 130 130" fill="none" xmlns="http://www.w3.org/2000/svg">
<circle cx="65" cy="65" r="65" fill="#007BFF"/>
<path d="M99.978 64.999L92.4256 56.3633L93.478 44.9419L82.3042 42.4038L76.4542 32.499L65.9304 37.0181L55.4066 32.499L49.5566 42.3728L38.3828 44.88L39.4352 56.3324L31.8828 64.999L39.4352 73.6347L38.3828 85.0871L49.5566 87.6252L55.4066 97.499L65.9304 92.949L76.4542 97.4681L82.3042 87.5943L93.478 85.0562L92.4256 73.6347L99.978 64.999ZM60.0185 79.6085L48.2566 67.8157L52.8376 63.2347L60.0185 70.4466L78.1256 52.2776L82.7066 56.8585L60.0185 79.6085Z" fill="white"/>
</svg>

<svg xmlns="http://www.w3.org/2000/svg" width="130" height="130" fill="none" xmlns:v="https://vecta.io/nano"><circle cx="65" cy="65" r="65" fill="#007bff"/><path d="M99.978 64.999l-7.552-8.636 1.052-11.421-11.174-2.538-5.85-9.905-10.524 4.519-10.524-4.519-5.85 9.874-11.174 2.507 1.052 11.452-7.552 8.667 7.552 8.636-1.052 11.452 11.174 2.538 5.85 9.874 10.524-4.55 10.524 4.519 5.85-9.874 11.174-2.538-1.052-11.422 7.552-8.636zm-39.959 14.61L48.257 67.816l4.581-4.581 7.181 7.212 18.107-18.169 4.581 4.581-22.688 22.75z" fill="#fff"/></svg>
